public/new/svg9.svg

<svg fill="none" height="28" viewBox="0 0 28 28" width="28" xmlns="http://www.w3.org/2000/svg"><g fill="#77787e"><path d="m21 7v4h1v-5h-5v1z"/><path d="m16.854 11.854 5-5-.708-.708-5 5zm-9.854-4.854v4h-1v-5h5v1z"/><path d="m11.146 11.854-5-5 .708-.708 5 5zm9.854 9.146v-4h1v5h-5v-1z"/><path d="m16.854 16.146 5 5-.708.708-5-5z"/><path d="m7 21v-4h-1v5h5v-1z"/><path d="m11.146 16.146-5 5 .708.708 5-5z"/></g></svg>

<svg width="28" height="28" viewBox="0 0 28 28" fill="none" xmlns="http://www.w3.org/2000/svg">
<path d="M21 7V11H22V6H17V7H21Z" fill="#77787E"/>
<path d="M16.854 11.854L21.854 6.854L21.146 6.146L16.146 11.146L16.854 11.854ZM7 7V11H6V6H11V7H7Z" fill="#77787E"/>
<path d="M11.146 11.854L6.146 6.854L6.854 6.146L11.854 11.146L11.146 11.854ZM21 21V17H22V22H17V21H21Z" fill="#77787E"/>
<path d="M16.854 16.146L21.854 21.146L21.146 21.854L16.146 16.854L16.854 16.146Z" fill="#77787E"/>
<path d="M7 21V17H6V22H11V21H7Z" fill="#77787E"/>
<path d="M11.146 16.146L6.146 21.146L6.854 21.854L11.854 16.854L11.146 16.146Z" fill="#77787E"/>
</svg>
